svg/white/usdc.svg

<?xml version="1.0" encoding="UTF-8"?>
<svg width="32px" height="32px" viewBox="0 0 32 32" version="1.1" xmlns="http://www.w3.org/2000/svg" xmlns:xlink="http://www.w3.org/1999/xlink">
    <!-- Generator: Sketch 52.5 (67469) - http://www.bohemiancoding.com/sketch -->
    <title>svg/white/usdc</title>
    <desc>Created with Sketch.</desc>
    <g id="white/usdc" stroke="none" stroke-width="1" fill="none" fill-rule="evenodd">
        <path d="M16,32 C7.163444,32 0,24.836556 0,16 C0,7.163444 7.163444,0 16,0 C24.836556,0 32,7.163444 32,16 C32,24.836556 24.836556,32 16,32 Z M15.75,27.5 C18.8662938,27.5 21.8549522,26.2620571 24.0585047,24.0585047 C26.2620571,21.8549522 27.5,18.8662938 27.5,15.75 C27.5,9.26065419 22.2393458,4 15.75,4 C9.26065419,4 4,9.26065419 4,15.75 C4,22.2393458 9.26065419,27.5 15.75,27.5 Z M15.05,11.39 L15.05,10.65 C15.05,10.2606393 15.3656393,9.945 15.755,9.945 C16.1443607,9.945 16.46,10.2606393 16.46,10.65 L16.46,11.34 C17.6021199,11.4224364 18.5620998,12.2291422 18.84,13.34 C18.8901444,13.5632894 18.7522968,13.7856242 18.53,13.84 L18.06,13.84 C17.7513588,13.8383951 17.4711701,13.6593857 17.34,13.38 C17.0161241,12.820057 16.3933631,12.5028014 15.75,12.57 C14.75,12.57 14.15,13.19 14.15,13.75 C14.15,14.31 14.62,14.64 15.62,14.89 L16.62,15.11 C18.35,15.48 19.08,16.21 19.08,17.48 C19.0584133,18.8997424 17.9098153,20.0439056 16.49,20.06 L16.49,20.91 C16.49,21.2993607 16.1743607,21.615 15.785,21.615 C15.3956393,21.615 15.08,21.2993607 15.08,20.91 L15.08,20.07 C13.838146,20.051089 12.7655698,19.1963157 12.47,17.99 C12.4524644,17.8984675 12.4721588,17.8037211 12.5247184,17.7267589 C12.577278,17.6497966 12.6583618,17.5969748 12.75,17.58 L13.34,17.58 C13.6013921,17.5819489 13.8385281,17.7335605 13.95,17.97 C14.3261865,18.5930487 15.0252313,18.9464546 15.75,18.88 C16.75,18.88 17.52,18.28 17.52,17.67 C17.52,17.06 17.08,16.7 16.01,16.45 L14.91,16.19 C13.34,15.86 12.6,15.07 12.6,13.86 C12.6552419,12.5270671 13.7175603,11.4560767 15.05,11.39 Z M6.94,15.75 C6.94234865,11.9609036 9.37253534,8.5997499 12.97,7.41 C13.0992205,7.36430656 13.2426079,7.38453959 13.3541393,7.46420491 C13.4656708,7.54387024 13.5313142,7.67294489 13.53,7.81 L13.53,8.04 C13.5293389,8.4178779 13.3000971,8.75778825 12.95,8.9 C10.1670142,10.0233107 8.34480943,12.7238607 8.34480943,15.725 C8.34480943,18.7261393 10.1670142,21.4266893 12.95,22.55 C13.301668,22.6957966 13.5306754,23.0393078 13.53,23.42 L13.53,23.63 C13.53,23.8785281 13.3285281,24.08 13.08,24.08 L12.94,24.08 C9.35787992,22.8810139 6.9423494,19.5274524 6.94,15.75 Z M24.56,15.75 C24.56339,19.5284847 22.1516584,22.8863882 18.57,24.09 C18.4274823,24.1380053 18.2705982,24.1149129 18.1479578,24.0278777 C18.0253173,23.9408425 17.9517312,23.8003756 17.95,23.65 L17.95,23.48 C17.9603507,23.0920384 18.1942405,22.7451018 18.55,22.59 C21.3264457,21.4634777 23.1428354,18.7662816 23.1428354,15.77 C23.1428354,12.7737184 21.3264457,10.0765223 18.55,8.95 C18.1870957,8.79639785 17.948239,8.4439864 17.94,8.05 L17.94,7.9 C17.94,7.64042617 18.1504262,7.43 18.41,7.43 L18.56,7.43 C22.1386358,8.62781415 24.5533579,11.9762289 24.56,15.75 Z" id="Combined-Shape" fill="#FFFFFF" fill-rule="nonzero"></path>
    </g>
</svg>

<svg width="32" height="32" viewBox="0 0 32 32" xmlns="http://www.w3.org/2000/svg"><path d="M16 32C7.163 32 0 24.837 0 16S7.163 0 16 0s16 7.163 16 16-7.163 16-16 16zm-.25-4.5A11.75 11.75 0 0 0 27.5 15.75C27.5 9.26 22.24 4 15.75 4S4 9.26 4 15.75 9.26 27.5 15.75 27.5zm-.7-16.11v-.74a.705.705 0 0 1 1.41 0v.69a2.65 2.65 0 0 1 2.38 2 .42.42 0 0 1-.31.5h-.47a.8.8 0 0 1-.72-.46 1.64 1.64 0 0 0-1.59-.81c-1 0-1.6.62-1.6 1.18 0 .56.47.89 1.47 1.14l1 .22c1.73.37 2.46 1.1 2.46 2.37a2.62 2.62 0 0 1-2.59 2.58v.85a.705.705 0 0 1-1.41 0v-.84a2.73 2.73 0 0 1-2.61-2.08.35.35 0 0 1 .28-.41h.59a.68.68 0 0 1 .61.39 1.9 1.9 0 0 0 1.8.91c1 0 1.77-.6 1.77-1.21s-.44-.97-1.51-1.22l-1.1-.26c-1.57-.33-2.31-1.12-2.31-2.33a2.58 2.58 0 0 1 2.45-2.47zm-8.11 4.36a8.79 8.79 0 0 1 6.03-8.34.42.42 0 0 1 .56.4v.23a.93.93 0 0 1-.58.86 7.36 7.36 0 0 0 0 13.65.94.94 0 0 1 .58.87v.21a.45.45 0 0 1-.45.45h-.14a8.79 8.79 0 0 1-6-8.33zm17.62 0a8.79 8.79 0 0 1-5.99 8.34.47.47 0 0 1-.62-.44v-.17a1 1 0 0 1 .6-.89 7.36 7.36 0 0 0 0-13.64 1 1 0 0 1-.61-.9V7.9c0-.26.21-.47.47-.47h.15a8.79 8.79 0 0 1 6 8.32z" fill="#FFF"/></svg>
